X: 32996
T: Pretty Maggie Morrissey
R: hornpipe
M: 4/4
K: Gmajor
Bc|dBGB cAFA|GBAF GABc|dgfg efge|dBGB A2 Bc|
dBGB cAFA|GBAF GABc|dgfg ecAF|G2 G2 G2|
Bc|dgfg efge|dBGB A2 Bc|dgfg efge|dBGB A2 Bc|
dBGB cAFA|GBAF GABc|dgfg ecAF|G2 G2 G2|

